X:1
T:I Want to Have Stars in My Crown
T:I Want to Have Stars in My Crown
T:Henry Lake Gilmour
T:Myron W. Morse, 1901
T:Public Domain Courtesy of the Cyber Hymnal™
T:Public Domain Courtesy of the Cyber Hymnal™
C:Henry Lake Gilmour
Z:Public Domain
Z:Courtesy of the Cyber Hymnal™
%%score ( 1 2 ) ( 3 4 )
L:1/8
Q:1/4=95
M:4/4
K:Ab
V:1 treble 
V:2 treble 
V:3 bass 
V:4 bass 
V:1
 [Ec]2 | [Ec]2 [EB][EA] [EA] [EG]2 [Gd] | [Gd]2 [EA]>[EB] [Ec]3 [Ee] | %3
w: 1.~I’ve|read of a coun- try, a|land O so fair, Whose|
w: 2.~I’m|told that the Sav- ior will|wel- come up there, And|
w: 3.~I’m|told in that coun- try no|sor- row is known, No|
w: 4.~A|star will be giv- en for|work that we do, In|
 e2 [Gc][GB] [FA]2 [=DB][Dc] | [EB]6 [Ec]2 | [Ec]2 [DG][DB] [CA] [CE]2 [Ec] | %6
w: beau- ties have ne- ver been|told; Where|saint- ed ones hap- py, and|
w: grant His dear face to be-|hold, All|who have been faith- ful His|
w: trou- ble, no bur- dens to|bear; For|mu- sic en- chant- ing, in|
w: win- ning from path- ways of|sin, Each|soul so im- mor- tal, so|
 [Fd]2 [FA]>[_FB] [Ec]2 [Ee][Ee] | [Ae]2 [Ed][Ec] [DB]2 [Ec][DB] | [CA]6 ||"^Refrain" [Ee]2 | %10
w: know- ing no care, Hav- ing|stars in their crowns of pure|gold.||
w: glo- ry may share, Hav- ing|stars in their crowns of pure|gold.|I|
w: sweet blend- ing tone, Fr- om|saints wear- ing star- crowns up|there.||
w: pre- cious, so true, Bri- ght|stars for our crown we may|win.||
 [Ae]2 [Ec][DB] [CA]2 [DB][Ec] | [CE]6 EE | [Ed]2 [Ed][Ed] [Ec]2 [F=d][Ae] | %13
w: |||
w: want to have stars in my|crown, Yes, I|want to have stars in my|
w: |||
w: |||
 !fermata!B6 !fermata![Ac][Ac] | [Ac]2 [A=B][Ac] [EA]2 [Gd][Gd] | [Gd]2 [^Fc][Gd] [GB]2 [Ge]2 | %16
w: |||
w: crown, When my|life- work is o’er, On the|bright gold- en shore, I|
w: |||
w: |||
 !fermata![Ae]2 [Ad]"^riten."[Ac] [FB]2 F[EG] | [EA]6 |] %18
w: ||
w: want to have stars in my|crown.|
w: ||
w: ||
V:2
 x2 | x8 | x8 | (EA) x6 | x8 | x8 | x8 | x8 | x6 || x2 | x8 | x6 EE | x8 | (G2 FA G2) x2 | x8 | %15
 x8 | x6 F x | x6 |] %18
V:3
 [A,,A,]2 | [A,,A,]2 [A,,D][A,,C] [E,C] [E,B,]2 [E,B,] | [E,B,]2 [E,C]>[E,G,] A,3 [A,C] | %3
w: ~|~ ~ ~ ~ ~ ~|~ ~ ~ ~ ~|
 [A,C]2 [E,E][E,D] [F,C]2 [B,,A,][B,,A,] | [E,G,]6 A,2 | A,2 [E,B,][E,G,] A, A,2 A, | %6
w: ~ ~ ~ ~ ~ ~|~ ~|~ ~ ~ ~ ~ ~|
 [D,A,]2 [D,A,]>[D,A,] [A,,A,]2 [A,C][A,C] | [A,C]2 [A,B,]A, [E,G,]2 [E,G,][E,G,] | [A,,A,]6 || %9
w: ~ ~ ~ ~ ~ ~|~ ~ ~ ~ ~ ~|~|
 [A,C]2 | [A,C]2 [A,,A,][A,,A,] [A,,A,]2 [A,,A,][A,,A,] | %11
w: ~|~ ~ ~ ~ ~ ~|
 [A,,A,]2 [C,A,][E,A,] [A,,A,]2 [A,C][A,C] | [G,B,]2 [G,B,][G,B,] (A,C)[A,=B,][A,C] | %13
w: ~ in my crown, ~ ~|~ ~ ~ ~ * ~ ~|
 (B,E)[B,,=D][B,,D] [E,E]2 [A,E][A,E] | [A,E]2 [A,=D][A,E] [A,C]2 [B,E][B,E] | %15
w: ~ * in my crown, * *||
 [B,E]2 [=A,E][B,E] [E,E]2 [E,B,]2 | !fermata![A,C]2 [A,F][A,E] [D,D]2 [D,B,][E,B,] | [A,,C]6 |] %18
w: |||
V:4
 x2 | x8 | x4 A,3 x | x8 | x6 A,2 | A,2 A, A,2 A, x2 | x8 | x3 A, x4 | x6 || x2 | x8 | x8 | %12
 x4 A,2 x2 | B,2 x6 | x8 | x8 | x8 | x6 |] %18

